!!!COM: Scarlatti, Domenico
!!!CDT: 1685-1757
!!!OTL: Sonata in F minor, L.27, K.238
!!!SCT: K. 238
!!!SCT: L. 27
!!!OMD: Andante ([quarter]=92)
**kern	**kern	**dynam
*staff2	*staff1	*staff1/2
*Icemba	*Icemba	*
*I"L.27 (K.238)	*I"L.27 (K.238)	*
*>[A,A,B,B]	*>[A,A,B,B]	*>[A,A,B,B]
*>norep[A,B]	*>norep[A,B]	*>norep[A,B]
*>A	*>A	*>A
*clefF4	*clefG2	*clefG2
*k[b-e-a-d-]	*k[b-e-a-d-]	*k[b-e-a-d-]
*f:	*f:	*
*met(c)	*met(c)	*
*M4/4	*M4/4	*
*MM92	*MM92	*
=1-	=1-	=1-
4FF+	8r	.
.	(8ccL	p
4r	8.ff	.
.	16ggJk	.
2r	8.aa-L)	.
.	(16aa-k	.
.	8.gg	.
.	16ffJk	.
*clefG2	*	*
=2	=2	=2
8r	2.cc)	.
!	!	!LO:DY:b=2:rj
(8cL	.	mf
8.f	.	.
16gJk	.	.
8.a-L)	.	.
(16a-k	.	.
!	!	!LO:DY:b
8.g	([4ff	f
16fJk	.	.
!!LO:LB:g=z
=3	=3	=3
*^	*	*
(4c)	2c	8.ffL]	.
.	.	16ggk	p
[4b-)	.	8.een	.
.	.	16ffJk	.
*v	*v	*	*
8.b-L]	8.ggL)	.
(16b-k	(16ggk	.
8.a-	8.ff	.
16gJk	16eeJk	.
=4	=4	=4
8.cL)	8.ccL)	mf
(16a-k	(16ccck	p
8.g	8.bb-	.
16fJk	16aa-Jk	.
8.cL)	8.bb-L)	.
(16gk	(16bb-k	.
8.f	8.aa-	.
16enJk	16ggJk	.
=5	=5	=5
4F 4f)	8.aa-L)	.
!	!	!LO:DY:rj
.	(16cck	p
4r	8.a-	.
.	16b-Jk	.
8r	2a- [2cc)	.
*clefF4	*	*
!	!	!LO:DY:rj
(8cL	.	mf
8.F 8.A-	.	.
16G 16B-Jk	.	.
!!LO:LB:g=z
=6	=6	=6
4A- 4c	8.ccL]	.
.	16cc'k	p
8.G 8.B-L	(8.cc	<
16F 16A-Jk	16ddnJk	.
4E- 4G)	8.ee-L)	.
.	16ee-'k	.
8.E- (8.GL	(8.ee-	.
16Dn 16FJk	16ffJk	[
=7	=7	=7
2C 2E-)	8.ggL)	p
.	(16ggJk	.
.	8.cc 8.ee-L	.
.	16ddn 16ffJk	.
8r	2ee- [2gg)	.
*clefG2	*	*
!	!	!LO:DY:b=2:rj
(8gL	.	mf
8.c 8.e-	.	.
16dn 16fJk	.	.
=8	=8	=8
4e- 4g	8.ggL]	.
.	(16ee-k	.
8.fL	8.ddnm	.
16a-Jk	16ccJk	.
8.gL)	4bn)	.
!	!	!LO:HP:b=2
16Bn' 16g'k	.	<
8.B 8.g	4r	.
(16B 16gJk	.	.
!!LO:LB:g=z
=9	=9	=9
8.c) 8.a-L	2r	.
16dn' 16bn'k	.	.
8.d 8.b	.	.
(16d 16bJk	.	.
8.e-) 8.ccL	(8.ee-TL	[[ f
.	32qqddLLL	.
.	32qqee-JJJ	.
*	*	*^
!	!	!	!LO:HP:b=2
16Bn' 16g'k	32ffLL	>	<
.	32ggJJJ	.	.
8.B 8.g	4ff)	]]	.
(16B 16gJk	.	.	.
=10	=10	=10	=10
8.c) 8.a-L	2r	.	.
16dn' 16bn'k	.	.	.
8.d 8.b	.	.	.
(16d 16bJk	.	.	.
8.e-) 8.ccL	(8.ee-TL	f	[[
.	(32qqddLLL	.	.
.	32qqee-JJJ)	>	.
!	!	!	!LO:HP:b=2
16Bn' 16g'k	32ffLL	.	<
.	32ggJJJ	.	.
8.B 8.g	4ff)	]]	.
(16B 16gJk	.	.	.
=11	=11	=11	=11
8.c) 8.a-L	2r	.	.
16dn' 16bn'k	.	.	.
8.d 8.b	.	.	.
(16d 16bJk	.	.	[[
*	*	*v	*v
4e-) 4cc	8r	]
!	!	!LO:DY:b:rj
.	8ggL	f
*clefF4	*	*
(4c	8.gg	.
.	16gg'Jk	.
!!LO:LB:g=z
=12	=12	=12
*	*^	*
4Bn	4aa-	(8.ggL	.
.	.	16ffk)	.
4c	4gg	(8.ff	.
.	.	16ee-Jk)	.
4F	4ff	(8.ee-L	.
.	.	16ddnk)	.
4A-	4ee-	(8.dd	.
.	.	16ccJk	.
*	*v	*v	*
=13	=13	=13
4G	4bn)	.
4A-	(8.ccTL	.
.	32bLL	.
.	32ccJJJ	.
4G)	8.ddnL)	.
.	16dd' 16bbn'k	p
4r	8.dd 8.bb	.
.	(16dd 16bbJk	<
=14	=14	=14
2r	8.ee- 8.cccL)	[
.	16cc' 16aa-'k	.
.	8.cc 8.aa-	.
.	(16cc 16aa-Jk	.
8r	4ddn	mf
8Bn' 8g'L	.	.
8.B 8.g	[4gg	.
16B (16gJk	.	.
!!LO:LB:g=z
=15	=15	=15
8.c 8.a-L)	8.ggL]	.
16A-' 16f'k	16ee-Jk	.
8.A- 8.f	4ccT	.
16A- ((16fJk	.	.
.	32qqbnLLL	.
.	32qqccJJJ	.
4G 4g+))	8.bnyL)	p
.	16ddn 16bbnk	.
4r	8.dd 8.bb	.
.	.	<
.	(16dd 16bbJk	[[
=16	=16	=16
2r	8.ee- 8.cccL)	.
.	16cc' 16aa-'k	.
.	8.cc 8.aa-	.
.	16cc (16aa-Jk	[
8r	4ddn	mf
8Bn' 8g'L	.	.
8.B 8.g	[4gg	.
(16B 16gJk	.	.
=17	=17	=17
*^	*	*
2ryy	8.c 8.a-L)	8.ggL]	.
.	16A-' 16f'k	16ee-Jk	.
.	8.A- 8.f	4ccT	.
.	(16A- 16fJk	.	.
.	.	32qqbnLLL	.
.	.	32qccJJJ	.
4g)	2G)	8.bnyL)	.
.	.	16b' 16gg'k	f
4g	.	8.b 8.gg	.
.	.	16b (16ggJk	.
!!LO:LB:g=z
=18	=18	=18	=18
(4g	2G	8.cc 8.aa-L)	.
.	.	16ddn' 16bbn'k	.
4f	.	8.dd' 8.bb'	.
.	.	16dd (16bbJk	.
2ryy	4c 4e-	12cccL	.
.	.	12cc	.
.	.	12ggJ	.
.	4F 4f	12ffL	.
.	.	12ee-	.
.	.	12ddJ	.
=19	=19	=19	=19
4e-	2G	4cc	.
4dn	.	4bn	.
2ryy	4A- 4c)	12ccL)	.
.	.	(12c	mf
.	.	12gJ	.
.	(4F	12fL	.
.	.	12e-	.
.	.	12dnJ	.
*v	*v	*	*
=20	=20	=20
4G)	4c	.
(4GG	4Bn	.
4CC) 4C	4c)	.
4r	4r	.
!!LO:LB:g=z
=21:|!|:	=21:|!|:	=21:|!|:
*>B	*>B	*>B
8.c	8.r	p
16r	16een 16ggLK	.
4r	8.ee (8.gg	.
.	16ff 16aa-Jk	.
8r	[2gg [2bb-)	.
*clefG2	*	*
!	!	!LO:DY:b=2
!	!	!LO:HP:b=2
(8en 8gL	.	mf <
8.e 8.g	.	.
16f 16a-Jk	.	.
=22	=22	=22
8.g 8.b-L	2gg_ 2bb-_	[[
!	!	!LO:HP:b=2
16f 16a-k	.	>
8.en 8.g	.	.
16d-X 16fJk	.	.
8.c) 8.en	8.gg] 8.bb-L]	]
*clefF4	*	*
16B- (16d-XLK	(16een 16ggk	<
8.A- 8.c	8.ff 8.aa-	.
16G 16B-Jk	16gg 16bb-Jk	.
=23	=23	=23
2F 2A-)	8.aa- 8.cccL)	.
.	16ff' 16aa-'k	[ p
.	(8.ff 8.aa-	.
.	16gg 16bb-Jk	.
8r	[2aa- [2ccc)	.
*clefG2	*	*
!	!	!LO:DY:b=2
8f 8a-L	.	mf
(<8.f 8.a-	.	.
16g 16b-Jk	.	.
!!LO:LB:g=z
=24	=24	=24
8.a- 8.ccL	2aa-] 2ccc]	.
16g 16b-k	.	.
8.f 8.a-	.	.
16e- 16gJk	.	.
8.d- 8.fL	8r	.
.	(8ffL	<
16c 16e-k	.	.
8.B- 8.d-	8.gg	.
16A- 16cJk	16aa-Jk	.
*clefF4	*	*
=25	=25	=25
*	*^	*
8.G 8.B-L	2.ryy	8.bb-L	[
16F 16A-k	.	16aa-Jk	.
8.E- 8.G	.	[4gg)	.
16F 16A-Jk	.	.	.
4G) 4B-	.	8.ggL]	.
.	.	16ffk	>
4E- (4G	4bb-	8.ee-	.
.	.	16dd-Jk	.
*	*v	*v	*
=26	=26	=26
2A-)	8.cc 8.aa-L	]
.	16aa-' 16ccc'k	<
.	8.aa- 8.ccc	.
.	16aa-' 16ccc'Jk	.
(4e-	(8.aa- 8.cccL	[ >
.	16gg 16bb-k)	.
4en	8.gg 8.bb-	.
.	16gg' 16bb-'Jk	]
!!LO:LB:g=z
=27	=27	=27
4f	(8.gg 8.bb-L	>
.	16ff 16aa-k)	]
4Bn	8.ff 8.aa-	.
.	16ff' 16aa-'Jk	.
4c)	(8.ff 8.aa-L	>
.	16ee- 16ggk)	]
(4C	8.ee- 8.gg	.
.	16ee-' 16gg'Jk	.
=28	=28	=28
4D-	(8.ee- 8.ggL	>
.	16dd- 16ffk)	]
4G	8.dd- 8.ff	.
.	16dd-' 16ff'Jk	.
4A-	(8.dd- 8.ffL	>
.	16cc 16ee-k)	]
4An	8.cc 8.ee-	.
.	16cc' 16ee-'Jk	.
=29	=29	=29
*	*^	*
4B-	2.ryy	(8.cc 8.ee-L	>
.	.	16b- 16dd-k)	]
4c	.	(8.b- 8.dd-	>
.	.	16a- 16ccJk)	]
4d-)	.	(>8.a- 8.ccL	>
.	.	16g 16b-Jk)	]
!	!	!	!LO:DY:rj
(4D-/	(4b-	(8.gL	sf
.	.	16fJk	.
*	*v	*v	*
!!LO:LB:g=z
=30	=30	=30
4C)	8.en 8.ccL))	]
.	16g' 16een'k	p
4r	8.g 8.ee	<
.	(16g 16eeJk	.
2r	8.a- 8.ffL)	.
.	16ddn' 16bbn'k	.
.	8.dd 8.bb	.
.	(16dd 16bbJk	[[
=31	=31	=31
8r	4een 4ccc	f
*clefG2	*	*
8en 8ccL	.	.
8.e 8.cc	[4gg	.
(16e 16ccJk	.	.
8.f) 8.dd-L	8.ggL]	.
16d-' 16b-'k	16aa-Jk	.
8.d- 8.b-	4ffT	.
(16d- 16b-Jk	.	.
.	32qqeenLLL	.
.	32qqffJJJ	.
=32	=32	=32
4c) 4cc	8een+)	.
.	8g 8eenL	p <
4r	8.g 8.ee	.
.	(16g 16eeJk	.
2r	8.a- 8.ffL)	.
.	16ddn' 16bbn'k	.
.	8.dd 8.bb	.
.	(16dd 16bbJk	[[
!!LO:LB:g=z
=33	=33	=33
8r	4een 4ccc	f
8en 8ccL	.	.
8.e 8.cc	[4gg	.
(16e 16ccJk	.	.
8.f) 8.dd-L	8.ggL]	.
16d-' 16b-'k	16aa-Jk	.
8.d- 8.b-	4ff	.
(16d- 16b-Jk	.	.
=34	=34	=34
2c) 2cc	8.eenL)	.
.	16ccc'k	.
.	8.ccc	.
.	(16cccJk	.
8r	8.ddd-L)	.
*clefF4	*	*
8B-L	.	.
.	16ee' 16gg'k	.
8.B-	8.ee 8.gg	.
(<16B-Jk	(16ee 16ggJk	.
=35	=35	=35
*^	*	*
2ryy	(4A- 4f	12aa-L	.
.	.	12bb-	.
.	.	12cccJ)	.
.	.	(8qccc	.
.	4B- 4g	(12bb-L)	.
.	.	12aa-	.
.	.	12ggJ	.
4a-	2c	4ff	.
4g	.	4een	.
*v	*v	*	*
!!LO:LB:g=z
=36	=36	=36
4F) 4f)	8.ffL)	.
.	16g' 16een'k	p <
4r	8.g 8.ee	.
.	(16g 16eeJk	.
2r	8.a- 8.ffL)	.
.	16ddn' 16bbn'k	.
.	8.dd 8.bb	.
.	(16dd 16bbJk	[[
=37	=37	=37
8r	4een 4ccc	mf
*clefG2	*	*
8en 8ccL	.	.
8.e 8.cc	[4gg	.
(16e 16ccJk	.	.
8.f) 8.dd-L	8.ggL]	.
16d-' 16b-'k	16aa-Jk	.
8.d- 8.b-	4ffT	.
(16d- 16b-Jk	.	.
.	32qqeenLLL	.
.	32qqffJJJ	.
=38	=38	=38
4c) 4cc	8een+)	.
.	8g 8eenL	p <
4r	8.g 8.ee	.
.	(16g 16eeJk	.
2r	8.a- 8.ffL)	.
.	16ddn' 16bbn'k	.
.	8.dd 8.bb	.
.	(16dd 16bbJk	[[
!!LO:LB:g=z
=39	=39	=39
8r	4een 4ccc	f
8en 8ccL	.	.
8.e 8.cc	[4gg	.
(16e 16ccJk	.	.
8.f) 8.dd-L	8.ggL]	.
16d-' 16b-'k	16aa-Jk	.
8.d- 8.b-	4ffT	.
(16d- 16b-Jk	.	.
.	32qqeenLLL	.
.	32qqffJJJ	.
=40	=40	=40
2c) 2cc	8.eenL)	.
.	16ccc'k	.
.	8.ccc	.
.	(16cccJk	.
8r	8.ddd-L)	.
*clefF4	*	*
8B-L	.	.
.	16ee' 16gg'k	.
8.B-	8.ee 8.gg	.
(<16B-Jk	(16ee 16ggJk	.
=41	=41	=41
*^	*	*
2ryy	4A- (4f	12aa-L	.
.	.	12bb-	.
.	.	12cccJ)	.
.	.	(8qccc	.
.	4B- 4g	()12bb-L	.
.	.	12aa-	.
.	.	12ggJ	.
4a-	2c	4ff	.
4g))	.	4een)	.
*v	*v	*	*
!!LO:LB:g=z
=42	=42	=42
*	*^	*
.	.	(<8qqee-X	.
8r	2ryy	[2b- [2dd-)	f
8B- 8en 8gL	.	.	.
8.B- 8.e 8.g	.	.	.
16B-' 16e' 16g'Jk	.	.	.
8.B- 8.e 8.gL	8.ryy	8.b-] 8.dd-L]	.
16B-' 16e' 16g'k	(16dd-	(16dd-k	.
8.B- 8.e 8.g	4een	8.cc	.
(<16B- 16e 16gJk	.	16b-Jk	.
=43	=43	=43	=43
*^	*	*	*
2f	4A-	2ff	12ccL	.
.	.	.	12b-	.
.	.	.	12ccJ	.
.	4B-	.	12dd-L	.
.	.	.	12cc	.
.	.	.	12b-J	.
2ryy	4c)	4ff	12a-L	.
.	.	.	12g	.
.	.	.	12a-J	.
.	(4C	4een	12b-L	.
.	.	.	12a-	.
.	.	.	12gJ	.
*v	*v	*	*	*
*	*v	*v	*
=44	=44	=44
4FF 4F)	4f/ 4ff/))	.
4r	4r	.
2r	2r	.
==:|!	==:|!	==:|!
*-	*-	*-
!!!RDF**kern: > = above
!!!RDF**kern: < = below
!!!RDF**kern: + = marked note, optional, color=silver
!!!verovio: beamFrenchStyle 1
!!!URL-vhv: https://verovio.humdrum.org/?file=scarlatti/sonatas/L027K238.krn
!!!URL-pdf: https://github.com/craigsapp/scarlatti-keyboard-sonatas/blob/master/reference-edition/L027K238.pdf (reference ed.) Alessandro Longo (1864-1945) Milan: G. Ricordi & C.
!!!URL-pdf: https://imslp.eu/files/imglnks/euimg/d/dd/IMSLP350337-PMLP506809-Scarlatti,_Domenico-Sonates_Heugel_32.300_Volume_5.pdf#page=143 (urtext) Kenneth Gilbert (1931-2020), Le Pupitre, Vol.35, Paris: Heugel, 1974. Plate H. 32,300.
!!!URL-youtube: https://www.youtube.com/watch?v=XNTrLwOiP1k Theodore Mikell Guerrant, harpsichord
!!!URL-youtube: https://www.youtube.com/watch?v=OTnnVGeJ0tk Irina Bogdanova, piano
!!!PTL: Domenico Scarlatti: Opere complete per clavicembalo
!!!PED: Longo, Alessandro
!!!PPR: Ricordi
!!!PPP: Milan
!!!PDT: 1906-1913
!!!YEC: 2021 Craig Stuart Sapp
!!!YEM: Licence: (CC BY-NC-SA 4.0) https://creativecommons.org/licenses/by-nc-sa/4.0
!!!ENC: Craig Stuart Sapp
!!!END: 2005/06/25/
!!!EED: Craig Stuart Sapp
!!!EEV: 2020/12/29
